X:1
T: Ian Murray's Reel
C:
R:Reel
Q: 232
K:D
M:4/4
L:1/8
|:FG|A2 FA dA FA|((3GAG) EG ed cB|cd cB AB ce|d2 F2 A2 FG|
A2 FA dA FA|((3GAG) EG ed cB|cd cB AB ce|dB AF D2:|
|:FG|A2 FA dA FA|((3GAG) EG ed cB|Ac eg ag ec|d2 F2 A2 FG|
|1A2 FA dA FD|B,D GB d2 Bd|cd cB AG FE|Dd AF D2:|
|2A2 FA dA FA|((3GAG) EG ed cB|cd cB AB ce|dB AF D2||
